X:1
T:Oh, How Sweet When We Mingle
T:Oh, How Sweet When We Mingle
T:Robert Lowry
T:Frances Jane (Fanny) Crosby, 1866
T:Public Domain Courtesy of the Cyber Hymnal™
T:Public Domain Courtesy of the Cyber Hymnal™
C:Robert Lowry
Z:Public Domain
Z:Courtesy of the Cyber Hymnal™
%%score ( 1 2 ) ( 3 4 )
L:1/8
Q:1/4=110
M:4/4
K:F
V:1 treble 
V:2 treble 
V:3 bass 
V:4 bass 
V:1
 F[FG] | [FA]2 [FA]>[FA] [FA] [Fc]2 [Fc] | [Fd][Fc][Fc][FA] [EG]2 (FG) | %3
w: 1.~Oh, how|sweet when we min- gle with|kin- dred spir- its here, And *|
w: 2.~We are|pil- grims of Zi- on, though|tri- als we must bear, Which *|
w: 3.~When we|walk through the val- ley and|sha- dow of the tomb, Dear *|
 [FA]2 [CF]2 [B,D]C [A,F]>[CG] | [CF]6 F[FG] | [FA]2 [FA]>[FA] [FA] [Fc]2 [Fc] | %6
w: tell of Je- sus and His|love! When by|faith we can see Him, and|
w: all are bless- ings in dis-|guise: Though the|cross may be hea- vy, the|
w: Sav- ior, Thou wilt be our|guide: And Thy|smile like a sun- beam will|
 [Fd][Fc][Fc][FA] [EG]2 (FG) | [FA]2 [CF]2 [B,D]C [A,F]>[CG] | [CF]6 ||"^Refrain" [EG][FA] | %10
w: feel His pre- sence near, And *|lift our long- ing souls a-|bove.||
w: crown we soon shall wear In *|heav’n, where plea- sure ne- ver|dies.|We shall|
w: light be- yond the gloom, And *|keep Thy peo- ple at Thy|side.||
 [GB]2 [GB]>[FA] [EG]2 [FA][GB] | [Ac]4 [FA]4 | [Fc]2 [FA]2 [Fd]2 [Fc]2 | %13
w: |||
w: meet on the banks of the|ri- ver,|Hap- py, hap- py|
w: |||
 [EB][FA][CG][DF] [EG]2 F[FG] | [FA]2 [FA]>[FA] [FA] [Fc]2 [Fc] | [Fd][Fc][Fc][FA] [EG]2 (FG) | %16
w: |||
w: there for- ev- er- more! We shall|dwell with the an- gels, and|join with chor- al song, Our *|
w: |||
 [FA]2 [CF]2 [B,D]C [A,F]>[CG] | [CF]6 |] %18
w: ||
w: loved ones, loved ones gone be-|fore.|
w: ||
V:2
 F x | x8 | x6 F2 | x8 | x8 | x8 | x6 F2 | x8 | x6 || x2 | x8 | x8 | x8 | x8 | x8 | x6 F2 | x8 | %17
 x6 |] %18
V:3
 [F,A,][F,B,] | [F,C]2 [F,C]>[F,C] [F,C] [F,A,]2 [F,A,] | [F,B,][F,A,][F,A,][F,C] [C,C]2 (A,B,) | %3
 [F,C]2 [A,,F,]2 [B,,F,][A,,F,] [D,F,]>[B,,B,] | [F,A,]6 [F,A,][F,B,] | %5
 [F,C]2 [F,C]>[F,C] [F,C] [F,A,]2 [F,A,] | [F,B,][F,A,][F,A,][F,C] [C,C]2 (A,B,) | %7
 [F,C]2 [A,,F,]2 [B,,F,][A,,F,] [D,F,]>[C,B,] | [F,A,]6 || [C,C][C,C] | %10
 [C,C]2 [C,C]>[C,C] [B,C]2 [A,C][G,C] | [F,C]4 [F,C]4 | [F,A,]2 [F,C]2 [F,B,]2 [F,A,]2 | %13
 [G,C][F,C][E,C][D,=B,] [C,C]2 [F,A,][F,B,] | [F,C]2 [F,C]>[F,C] [F,C] [F,A,]2 [F,A,] | %15
 [F,B,][F,A,][F,A,][F,C] [C,C]2 (A,B,) | [F,C]2 [A,,F,]2 [B,,F,][A,,F,] [D,F,]>[C,B,] | [F,A,]6 |] %18
V:4
 x2 | x8 | x6 F,2 | x8 | x8 | x8 | x6 F,2 | x8 | x6 || x2 | x8 | x8 | x8 | x8 | x8 | x6 F,2 | x8 | %17
 x6 |] %18

